X: 1215
T: Ali's Quickstep
B: australian traditional tunes wiki
M:2/4
L:1/8
R: Quickstep
Q: 1/4=100
K:C
V:1 
"C"ee/e/ ee|edcA|G3E|C2c2|"G7"B2DE|FG AB|"F"A>G GE|"C"G4|!
"C"ee/e/ ee|edcA|G3E|C2c2|"G7"B2DE|FG AB|"C"c2e2|c4|!
"G7"B,C DE|F2D2|"C"CD EF|G4|"G7"d>c Bc|dc BA|"F"A>G GE|"C"G4|!
"G7"B,C DE|F2D2|"C"CD EF|G4|"G7"d>c Bc|dG AB|"C"c2"G7"e2|"C"c4|!
% abcbook-tune_id 6342d53a0d53d02f440e9900


% abcbook-boost 0
% abcbook-tablature 
% abcbook-transpose 
% abcbook-lastupdated 1665324354580
% abcbook-soundfonts 
% abcbook-repeats 1
% NFF Book 2014

